X:13011
T: The Duran Rangers
O: Old MS
B: RSCDS 13-1
M: 4/4
L: 1/8
%--------------------
K: D
AG |\
"D"FDFA d2ef | "G"gefd "A7"c2BA |\
"G"BcdB [1,3 "D/F#"ABAF | "Em"G2E2 "A7"E2 :|\
        [2,4 "A7"ABAG | "D"F2D2 D2 :|
|: fg |\
"D"afaf d2ga | "G"bgbg "A7"e2fg |\
"D"afaf "Bm"abaf | "Em"g2e2 "A7"e2 ||
AG |\
"D"FDFA d2ef | "G"gefd "A7"c2BA |\
"G"BcdB "A7"ABAG | "D"F2D2 D2 :|
